X: 142
T: Prince Rupert's March
M:4/4
L:1/8
Q:160
S:Playford
O:Manuscript
A:English
K:C
C2|A2E2 A2 B2|c2 B c2 c2|B2 A2 A2 ^G2|A6 C2|A2 E2 A2 B2|e3 d c2 c2| B2 A2 A2 ^G2|A6:|
|:A2|B3 A Bc d2|G3 A G2 G2|c2 c2 dede|c6 c2|B3 A Bc d2| G3 A G2 c2|B2 A2 A2 ^G2|A6:|

